Arcticons/scalable/apps/keyboard69.svg

<svg viewBox="0 0 48 48" xmlns="http://www.w3.org/2000/svg">
 <defs>
  <style>.a{fill:none;stroke:#fff;stroke-linecap:round;stroke-linejoin:round;}</style>
 </defs>
 <circle class="a" cx="24" cy="10.87" r="2.77"/>
 <path class="a" d="m43.5 16.11v20.43a3.36 3.36 0 0 1-3.36 3.37 3.35 3.35 0 0 1-3.14-2.31l-6.28-18.83a3.89 3.89 0 0 0-3.72-2.66h-3v23.8h-3a3.9 3.9 0 0 1-3.69-2.67l-6.26-18.83a3.36 3.36 0 0 0-3.19-2.3 3.35 3.35 0 0 0-3.36 3.36v20.43"/>
</svg>

<svg xmlns="http://www.w3.org/2000/svg" viewBox="0 0 48 48"><defs><style>.a{fill:none;stroke:#fff;stroke-linecap:round;stroke-linejoin:round;}</style></defs><circle class="a" cx="24" cy="10.87" r="2.77"/><path class="a" d="M43.5,16.11V36.54a3.36,3.36,0,0,1-3.36,3.37h0A3.35,3.35,0,0,1,37,37.6L30.72,18.77A3.89,3.89,0,0,0,27,16.11H24v23.8H21a3.9,3.9,0,0,1-3.69-2.67L11.05,18.41a3.36,3.36,0,0,0-3.19-2.3h0A3.35,3.35,0,0,0,4.5,19.47V39.9"/></svg>
